static/assets/images/icons/0xventures.svg

<svg xmlns="http://www.w3.org/2000/svg" viewBox="0 0 257 256"><path fill-rule="evenodd" d="M47.514 235.156h111.591l-.008-31.823h8.377v-15.481h-8.377V156.03h16.746v31.822h9.3l-.005 15.481h-9.295v31.823h9.295v-31.823h10.234v31.823h16.738v-31.823h-8.369v-15.481h8.369V156.03h-16.738v31.822h-10.229V21H47.513zm102.292-31.823H81.922V52.823h67.884z" clip-rule="evenodd"/></svg>

<svg width="257" height="256" viewBox="0 0 257 256" fill="none" xmlns="http://www.w3.org/2000/svg">
<path fill-rule="evenodd" clip-rule="evenodd" d="M47.5137 235.156H159.105L159.097 203.333H167.474V187.852H159.097V156.03H175.843V187.852H185.143L185.138 203.333H175.843V235.156H185.138V203.333H195.372V235.156H212.11V203.333H203.741V187.852H212.11V156.03H195.372V187.852H185.143V104.808C185.143 59.3124 185.143 21 185.143 21H47.5137V235.156ZM149.806 203.333H81.9216V52.8223H149.806V203.333Z" fill="black"/>
</svg>
